X: 5895
T: Camber Lasses, The
R: reel
M: 4/4
K: Gmajor
BAGE DEGA|BdAc B~E3|BAGE DEGA|BdAc B~G3|
BAGE DEGA|BdAc B~E3|BAGE DEGA|BdAc B~G3||
e~g3 edBd|edgd B~A3|e ~g3 edgd|BdAc B ~G3|
e~g3 edBd|edgd B~A3|(3Bcd ef gdeg|dBAc B ~G3||

